dist/svg/desktop-off.svg

<!-- Generated by Trend Micro Style Portal -->
<svg version="1.1" xmlns="http://www.w3.org/2000/svg" width="16" height="16" viewBox="0 0 16 16">
  <title>desktop-off</title>
  <path fill="rgb(34,34,34)" d="M13 12h1c0.032 0.004 0.069 0.006 0.106 0.006 0.497 0 0.9-0.403 0.9-0.9 0-0.037-0.002-0.074-0.007-0.111l0 0.004v-9c0.004-0.032 0.006-0.069 0.006-0.106 0-0.497-0.403-0.9-0.9-0.9-0.037 0-0.074 0.002-0.111 0.007l0.004-0h-12l-1-1-1 1 15 15 1-1zM4 3h9v7h-2zM7 10l5 5h-7.5c-0.276 0-0.5-0.224-0.5-0.5v0c0-0.163 0.078-0.308 0.199-0.399l0.001-0.001 2.8-1.6v-0.5h-5c-0.032 0.004-0.069 0.006-0.106 0.006-0.497 0-0.9-0.403-0.9-0.9 0-0.037 0.002-0.074 0.007-0.111l-0 0.004v-7l2 2v4z"></path>
</svg>

<svg width="16" height="16" viewBox="0 0 16 16" fill="rgb(34, 34, 34)" xmlns="http://www.w3.org/2000/svg"><title>desktop-off</title><path d="M13 12H14C14.032 12.004 14.069 12.006 14.106 12.006C14.603 12.006 15.006 11.603 15.006 11.106C15.006 11.069 15.004 11.032 14.999 10.995V10.999V1.999C15.003 1.967 15.005 1.93 15.005 1.893C15.005 1.396 14.602 0.993 14.105 0.993C14.068 0.993 14.031 0.995 13.994 1H13.998H1.998L0.998001 0L-0.0019989 1L14.998 16L15.998 15L13 12ZM4 3H13V10H11L4 3ZM7 10L12 15H4.5C4.224 15 4 14.776 4 14.5C4 14.337 4.078 14.192 4.199 14.101L4.2 14.1L7 12.5V12H2C1.968 12.004 1.931 12.006 1.894 12.006C1.397 12.006 0.994001 11.603 0.994001 11.106C0.994001 11.069 0.996001 11.032 1.001 10.995V10.999V3.999L3.001 5.999V9.999L7 10Z" fill="rgb(34, 34, 34)" fill-opacity="1.00"/></svg>
